X:1
T:J. H. Rosecrans
T:H. L. D.
T:Hold Up Your Hands For Jesus
%%score { ( 1 2 ) | ( 3 4 ) }
L:1/8
M:6/8
K:Eb
V:1 treble 
V:2 treble 
V:3 bass 
V:4 bass 
V:1
"^Solo"{/x} G3 A2 A | G3 E3 | E3 F2 F | G3- G3 |[M:4/4]"^Chorus" B2 B>B e2 G2 | G4 F2 z2 | %6
w: "Al\- most per\-|suad\- ed"|now to be\-|lieve; *|Hold up your hands for|Je\- sus;|
w: "Al\- most per\-|suad\- ed,"|come, come to\-|day; *|||
w: "Al\- most per\-|suad\- ed,"|har\- vest is|past, *|||
[M:6/8]"^Solos" G3 A2 A | G3 E3 | F3 G2 F | E3- E3 |[M:4/4]"^Chorus" B2 B>B e2 G2 | F4 E2 z2 | %12
w: "Al\- most per\-|suad\- ed"|Christ to re\-|ceive; *|Hold up your hands for|Je\- sus;|
w: "Al\- most per\-|suad\- ed,"|turn not a\-|way; *|||
w: "Al\- most per\-|suad\- ed,"|doom comes at|last, *|||
"^Chorus" B2 G>A B3 B | cedc B4 | B2 F>G A3 B | cBBA G4 | B2 G>A B3 B | cedc B4 | %18
w: Hold up your hands while|He is pass\- ing by;|Hold up your hands, for|He is draw\- ing nigh;|Hold up your hands, for|why * will ye die?|
w: ||||||
w: ||||||
 e2 e>e[Q:1/4=48]"^Largo" !fermata!e2[Q:1/4=120]"^Allegretto" G2 | F4 E2 z2 |] %20
w: Hold up your hands for|Je\- sus.|
w: ||
w: ||
V:2
 B,3 C2 C | B,3 G,3 | C3 D2 D | E3- E3 |[M:4/4] G2 G>G G2 E2 | E4 D2 z2 |[M:6/8] B,3 C2 C | %7
 B,3 G,3 | A,3 B,2 A, | G,3- G,3 |[M:4/4] G2 G>G G2 E2 | D4 E2 z2 | G2 E>F G3 G | AcBA G4 | %14
 F2 D>E F3 G | AGGF E4 | G2 E>F G3 G | AcBA G4 | G2 A>B c2 E2 | D4 E2 z2 |] %20
V:3
 E,3 E,2 E, | E,3 E,3 | G,3 B,2 B, | B,3- B,3 |[M:4/4] E2 E>E B,2 B,2 | B,4 B,2 z2 | %6
[M:6/8] E,3 E,2 E, | E,3 E,3 | D,3 E,2 D, | E,3- E,3 |[M:4/4] E2 E>E B,2 B,2 | A,4 G,2 z2 | %12
 E2 B,>B, E3 E | EEEE E4 | D2 B,>B, B,3 B, | B,B,B,B, B,4 | E2 B,>B, E3 E | E2 EE E4 | %18
 B,2 B,>E E2 B,2 | A,4 G,2 z2 |] %20
V:4
 E,,3 E,,2 E,, | E,,3 E,,3 | C,3 B,,2 B,, | E,3- E,3 |[M:4/4] E,2 E,>E, E,2 E,2 | B,,4 B,,2 z2 | %6
[M:6/8] E,,3 E,,2 E,, | E,,3 E,,3 | B,,3 B,,2 B,, | E,,3- E,,3 |[M:4/4] E,2 E,>E, E,2 E,2 | %11
 B,,4 E,2 z2 | E,2 E,>E, E,3 E, | A,A,A,A, E,4 | B,,2 B,,>B,, B,,3 B,, | B,,B,,B,,B,, E,4 | %16
 E,2 E,>E, E,3 E, | A,2 A,A, E,4 | E,2 F,>G, !fermata!A,2 B,,2 | B,,4 E,2 z2 |] %20

